src/images/badges/doka-dog-help-10.svg

<svg width="40" height="40" viewBox="0 0 40 40" fill="none" xmlns="http://www.w3.org/2000/svg">
<path d="M39 10C39 5.02944 34.9706 0.999998 30 0.999998L10 1C5.02944 1 1 5.02944 1 10V30C1 34.9706 5.02944 39 10 39H30C34.9706 39 39 34.9706 39 30V10Z" fill="#FFD829"/>
<path d="M9.21619 8.44592C9.44727 8.44592 9.627 8.62565 9.627 8.90808V13.5297C9.627 15.3527 8.7797 16.4567 7.03375 16.4567C5.31348 16.4567 4.46619 15.3527 4.46619 13.5297V8.90808C4.46619 8.59998 4.64592 8.44592 4.877 8.44592C5.10808 8.44592 5.28781 8.62565 5.28781 8.90808V13.5297C5.28781 15.0702 5.95538 15.6865 7.03375 15.6865C8.13781 15.6865 8.80538 15.0702 8.80538 13.5297V8.90808C8.80538 8.59998 8.98511 8.44592 9.21619 8.44592Z" fill="black"/>
<path d="M9.24187 21.5149C9.42159 21.5149 9.54997 21.6433 9.627 21.7716L16.0459 32.5554C16.0973 32.6325 16.1229 32.7095 16.1229 32.8122C16.1229 33.0689 15.9689 33.223 15.7121 33.223C15.5324 33.223 15.404 33.0946 15.327 32.9662L8.90808 22.1825C8.85673 22.1054 8.83105 22.0284 8.83105 21.9257C8.83105 21.6689 8.98511 21.5149 9.24187 21.5149Z" fill="black"/>
<path d="M21.1297 28.4217C20.5648 28.4217 20.3851 29.1149 20.3851 29.8852C20.3851 30.6554 20.5648 31.3487 21.1297 31.3487C21.6945 31.3487 21.8743 30.6554 21.8743 29.8852C21.8743 29.1149 21.6945 28.4217 21.1297 28.4217Z" fill="black"/>
<path fill-rule="evenodd" clip-rule="evenodd" d="M23.954 29.9108C23.954 27.6771 22.2594 25.9568 20 25.9568C17.7405 25.9568 16.0459 27.7027 16.0459 29.9108C16.0459 32.1446 17.7662 33.8649 20 33.8649C22.2337 33.8649 23.954 32.1446 23.954 29.9108ZM18.2283 27.9081C18.3824 27.8311 18.5364 27.7798 18.6648 27.7798C18.9216 27.7798 19.05 27.9338 19.05 28.1392V31.6054C19.05 31.8622 18.8702 31.9906 18.6648 31.9906C18.4594 31.9906 18.2797 31.8622 18.2797 31.6054V28.6271L17.9716 28.8068C17.7662 28.9095 17.6121 28.9865 17.4837 28.9865C17.2783 28.9865 17.1243 28.8325 17.1243 28.6527C17.1243 28.4987 17.227 28.3703 17.4067 28.2933L18.2283 27.9081ZM21.1297 27.7798C22.1824 27.7798 22.6445 28.7041 22.6445 29.8852C22.6445 31.0662 22.1824 32.0162 21.1297 32.0162C20.077 32.0162 19.6148 31.0662 19.6148 29.8852C19.6148 28.7041 20.077 27.7798 21.1297 27.7798Z" fill="black"/>
<path d="M30.8865 21.5405C30.7067 21.5405 30.5783 21.6689 30.5013 21.7973L24.0824 32.5811C24.031 32.6581 24.0054 32.7608 24.0054 32.8378C24.0054 33.0689 24.1594 33.2486 24.4162 33.2486C24.5959 33.2486 24.7243 33.1203 24.8013 32.9919L31.2202 22.2081C31.2716 22.1311 31.2973 22.0284 31.2973 21.9513C31.2973 21.6946 31.1432 21.5405 30.8865 21.5405Z" fill="black"/>
<path d="M11.1932 14.6081C11.1932 14.8135 11.373 14.9932 11.5784 14.9932C11.6554 14.9932 11.7324 14.9676 11.8095 14.9419L15.9176 13.0932C16.123 12.9905 16.2 12.8878 16.2 12.7081C16.2 12.5284 16.0973 12.4257 15.9176 12.323L11.8095 10.4743C11.7324 10.4486 11.6554 10.423 11.5784 10.423C11.373 10.423 11.1932 10.577 11.1932 10.8081C11.1932 10.9622 11.2959 11.0905 11.4757 11.1676L15.0189 12.7081L11.4757 14.2486C11.2959 14.3257 11.1932 14.4541 11.1932 14.6081Z" fill="black"/>
<path d="M20 15.4554C19.5635 16.046 19.0243 16.6108 18.1256 16.6108C17.7919 16.6108 17.4838 16.5338 17.5094 16.2C17.5094 16.0203 17.6635 15.8406 17.8689 15.8406C17.9046 15.8406 17.9514 15.8461 18.0016 15.8521C18.0595 15.8589 18.122 15.8663 18.177 15.8663C18.5878 15.8663 19.1013 15.3271 19.3838 14.9163C18.7932 14.3 18.177 13.5298 18.177 12.6568C18.177 11.6554 18.9473 10.9365 20 10.9365C21.0527 10.9365 21.8229 11.6554 21.8229 12.6568C21.8229 13.5041 21.1811 14.3 20.6162 14.9163C20.8986 15.3014 21.3865 15.8663 21.8229 15.8663C21.8615 15.8663 21.9192 15.8599 21.977 15.8534C22.0348 15.847 22.0925 15.8406 22.1311 15.8406C22.3365 15.8406 22.4905 16.0203 22.4905 16.2C22.4905 16.5081 22.2081 16.6108 21.8743 16.6108C20.9757 16.6108 20.4365 16.046 20 15.4554Z" fill="black"/>
<path d="M24.0824 13.0675L28.1905 14.9161C28.2675 14.9418 28.3447 14.9675 28.4216 14.9675C28.627 14.9675 28.8067 14.8134 28.8067 14.5824C28.8067 14.4283 28.6784 14.2999 28.5243 14.2229L24.9811 12.6824L28.5243 11.1418C28.704 11.0648 28.8067 10.9364 28.8067 10.7824C28.8067 10.5769 28.627 10.3972 28.4216 10.3972C28.3447 10.3972 28.2678 10.4228 28.1908 10.4485L24.0824 12.2972C23.9027 12.3742 23.8 12.5026 23.8 12.6824C23.8 12.8621 23.877 12.9648 24.0824 13.0675Z" fill="black"/>
<path d="M34.7121 8.93372C34.7121 8.62561 34.8918 8.47156 35.1229 8.47156C35.354 8.47156 35.5337 8.62561 35.5337 8.93372V13.5553C35.5337 15.3783 34.6864 16.4824 32.9405 16.4824C31.2202 16.4824 30.3729 15.3783 30.3729 13.5553V8.93372C30.3729 8.62561 30.5527 8.47156 30.7837 8.47156C31.0148 8.47156 31.1945 8.65129 31.1945 8.93372V13.5553C31.1945 15.0959 31.8621 15.7121 32.9405 15.7121C34.0445 15.7121 34.7121 15.0959 34.7121 13.5553V8.93372Z" fill="black"/>
</svg>

<svg xmlns="http://www.w3.org/2000/svg" width="40" height="40" fill="none"><path fill="#FFD829" d="M39 10a9 9 0 0 0-9-9H10a9 9 0 0 0-9 9v20a9 9 0 0 0 9 9h20a9 9 0 0 0 9-9V10Z"/><path fill="#000" d="M9.216 8.446c.231 0 .411.18.411.462v4.622c0 1.823-.847 2.927-2.593 2.927-1.72 0-2.568-1.104-2.568-2.927V8.908c0-.308.18-.462.411-.462.231 0 .41.18.41.462v4.622c0 1.54.668 2.157 1.747 2.157 1.104 0 1.771-.617 1.771-2.157V8.908c0-.308.18-.462.411-.462ZM9.242 21.515c.18 0 .308.128.385.257l6.419 10.783a.434.434 0 0 1 .077.257c0 .257-.154.411-.41.411-.18 0-.309-.128-.386-.257L8.908 22.182a.434.434 0 0 1-.077-.256c0-.257.154-.411.41-.411ZM21.13 28.422c-.565 0-.745.693-.745 1.463 0 .77.18 1.464.745 1.464s.744-.694.744-1.464-.18-1.463-.744-1.463Z"/><path fill="#000" fill-rule="evenodd" d="M23.954 29.91c0-2.233-1.695-3.953-3.954-3.953-2.26 0-3.954 1.746-3.954 3.954 0 2.234 1.72 3.954 3.954 3.954s3.954-1.72 3.954-3.954Zm-5.726-2.002c.154-.077.308-.128.437-.128.257 0 .385.154.385.36v3.465c0 .257-.18.386-.385.386-.206 0-.385-.129-.385-.386v-2.978l-.308.18c-.206.103-.36.18-.488.18-.206 0-.36-.154-.36-.334 0-.154.103-.283.283-.36l.821-.385Zm2.902-.128c1.052 0 1.515.924 1.515 2.105s-.463 2.131-1.515 2.131c-1.053 0-1.515-.95-1.515-2.13 0-1.182.462-2.106 1.515-2.106Z" clip-rule="evenodd"/><path fill="#000" d="M30.887 21.54c-.18 0-.309.129-.386.257l-6.419 10.784a.495.495 0 0 0-.077.257c0 .23.154.41.411.41.18 0 .308-.128.385-.256l6.42-10.784a.495.495 0 0 0 .076-.257c0-.256-.154-.41-.41-.41ZM11.193 14.608c0 .205.18.385.385.385a.75.75 0 0 0 .232-.051l4.108-1.849c.205-.102.282-.205.282-.385 0-.18-.103-.282-.282-.385l-4.108-1.849a.75.75 0 0 0-.232-.051.378.378 0 0 0-.385.385c0 .154.103.283.283.36l3.543 1.54-3.543 1.54c-.18.078-.283.206-.283.36ZM20 15.455c-.436.591-.976 1.156-1.874 1.156-.334 0-.642-.077-.617-.411 0-.18.154-.36.36-.36.036 0 .082.006.133.012.058.007.12.014.175.014.41 0 .924-.539 1.207-.95-.59-.616-1.207-1.386-1.207-2.26 0-1 .77-1.72 1.823-1.72s1.823.72 1.823 1.72c0 .848-.642 1.644-1.207 2.26.283.385.77.95 1.207.95.038 0 .096-.006.154-.013.058-.006.116-.012.154-.012.206 0 .36.18.36.359 0 .308-.283.41-.617.41-.898 0-1.438-.564-1.874-1.155ZM24.082 13.068l4.108 1.848a.75.75 0 0 0 .232.051.378.378 0 0 0 .385-.385c0-.154-.129-.282-.283-.36l-3.543-1.54 3.543-1.54c.18-.077.283-.206.283-.36a.395.395 0 0 0-.385-.385.748.748 0 0 0-.231.051l-4.109 1.85c-.18.076-.282.205-.282.384 0 .18.077.283.282.386ZM34.712 8.934c0-.308.18-.462.41-.462.232 0 .412.154.412.462v4.621c0 1.823-.848 2.927-2.593 2.927-1.72 0-2.568-1.104-2.568-2.927V8.934c0-.308.18-.462.41-.462.232 0 .412.18.412.462v4.621c0 1.54.667 2.157 1.745 2.157 1.105 0 1.772-.616 1.772-2.157V8.934Z"/></svg>
